packages/netlify-cms-ui-default/src/Icon/images/h2.svg

<svg height="20" viewBox="0 0 22 20" width="22" xmlns="http://www.w3.org/2000/svg"><path d="m195.036 22h-5.532v-1.104l1.008-.912c1.704-1.524 2.532-2.4 2.556-3.312 0-.636-.384-1.14-1.284-1.14-.672 0-1.26.336-1.668.648l-.516-1.308c.588-.444 1.5-.804 2.556-.804 1.764 0 2.736 1.032 2.736 2.448 0 1.308-.948 2.352-2.076 3.36l-.72.6v.024h2.94zm-15.036-8h7v8h-7zm2 0v3h3v-3zm0 5v3h3v-3z" fill="#7a8291" fill-rule="evenodd" transform="translate(-177 -6)"/></svg>

<svg xmlns="http://www.w3.org/2000/svg" width="22" height="20" viewBox="0 0 22 20"><path fill="#7A8291" fill-rule="evenodd" d="M195.036,22 L189.504,22 L189.504,20.896 L190.512,19.984 C192.216,18.46 193.044,17.584 193.068,16.672 C193.068,16.036 192.684,15.532 191.784,15.532 C191.112,15.532 190.524,15.868 190.116,16.18 L189.6,14.872 C190.188,14.428 191.1,14.068 192.156,14.068 C193.92,14.068 194.892,15.1 194.892,16.516 C194.892,17.824 193.944,18.868 192.816,19.876 L192.096,20.476 L192.096,20.5 L195.036,20.5 L195.036,22 Z M180,14 L187,14 L187,22 L180,22 L180,14 Z M182,14 L182,17 L185,17 L185,14 L182,14 Z M182,19 L182,22 L185,22 L185,19 L182,19 Z" transform="translate(-177 -6)"/></svg>
